X:109
M:C
L:1/8
K:G
(3d/e/f/|g>d d>e e/d/^c/d/ B>d|e>Gd>G F<A A(3d/e/f/|
g>d d>e e/d/^c/d/ B>G|EF/G/ F>E D<GG:|
E/F/G F>E D>GG>B|GA/B/ E>G D>GB,>G|G/A/B/c/ d>G F<A A>B|

